assets/icons/outline/sparkle-ai.svg

<svg width="24" height="24" viewBox="0 0 24 24" fill="none" xmlns="http://www.w3.org/2000/svg">
<path d="M21.7778 4.17477H21.7792C21.9111 4.19453 22 4.32523 22 4.5C22 4.67477 21.9111 4.80547 21.7778 4.82523C20.5639 4.99392 19.6931 5.24924 19.45 5.51216C19.3444 5.62614 19.0708 6.07447 18.8181 7.7538C18.7972 7.90274 18.6722 8 18.5 8C18.3278 8 18.2028 7.90426 18.1819 7.75532C17.9306 6.07447 17.6569 5.62614 17.55 5.51216C17.3069 5.25076 16.4361 4.99392 15.2222 4.82523C15.0889 4.80547 15 4.67477 15 4.5C15 4.32219 15.0875 4.19453 15.2222 4.17477C16.4361 4.00608 17.3069 3.75076 17.55 3.48784C17.6556 3.37386 17.9292 2.92553 18.1819 1.2462C18.2028 1.09726 18.3278 1 18.5 1C18.6722 1 18.7972 1.09574 18.8181 1.24468C19.0694 2.92553 19.3431 3.37386 19.45 3.48784C19.6931 3.75076 20.5639 4.0076 21.7778 4.17477Z" fill="#282828"/>
<path d="M22.7143 18.0818H22.7161C22.8857 18.1073 23 18.2753 23 18.5C23 18.7247 22.8857 18.8927 22.7143 18.9181C21.1536 19.135 20.0339 19.4633 19.7214 19.8013C19.5857 19.9479 19.2339 20.5243 18.9089 22.6835C18.8821 22.8749 18.7214 23 18.5 23C18.2786 23 18.1179 22.8769 18.0911 22.6854C17.7679 20.5243 17.4161 19.9479 17.2786 19.8013C16.9661 19.4653 15.8464 19.135 14.2857 18.9181C14.1143 18.8927 14 18.7247 14 18.5C14 18.2714 14.1125 18.1073 14.2857 18.0818C15.8464 17.865 16.9661 17.5367 17.2786 17.1987C17.4143 17.0521 17.7661 16.4757 18.0911 14.3165C18.1179 14.1251 18.2786 14 18.5 14C18.7214 14 18.8821 14.1231 18.9089 14.3146C19.2321 16.4757 19.5839 17.0521 19.7214 17.1987C20.0339 17.5367 21.1536 17.8669 22.7143 18.0818Z" fill="#282828"/>
<path d="M19.3968 11.1637H19.4006C19.7587 11.2145 20 11.5506 20 12C20 12.4494 19.7587 12.7855 19.3968 12.8363C16.102 13.2701 13.7383 13.9266 13.0786 14.6027C12.7921 14.8958 12.0494 16.0486 11.3633 20.3669C11.3067 20.7499 10.9675 21 10.5 21C10.0325 21 9.69325 20.7538 9.63671 20.3708C8.95436 16.0486 8.21171 14.8958 7.92143 14.6027C7.26171 13.9305 4.89802 13.2701 1.60317 12.8363C1.24127 12.7855 1 12.4494 1 12C1 11.5428 1.2375 11.2145 1.60317 11.1637C4.89802 10.7299 7.26171 10.0734 7.92143 9.39731C8.20794 9.10421 8.95059 7.95137 9.63671 3.63309C9.69325 3.2501 10.0325 3 10.5 3C10.9675 3 11.3067 3.2462 11.3633 3.62918C12.0456 7.95136 12.7883 9.10421 13.0786 9.39731C13.7383 10.0734 16.102 10.7338 19.3968 11.1637ZM16.9502 12C16.3734 11.8906 15.774 11.7577 15.201 11.6053C13.7232 11.2145 12.7619 10.7729 12.2567 10.261C11.5819 9.56926 10.9901 7.95918 10.5 5.46591C10.0099 7.95527 9.41806 9.56535 8.74325 10.261C8.2381 10.7729 7.27679 11.2145 5.79901 11.6053C5.22599 11.7577 4.62282 11.8867 4.0498 12C4.62659 12.1094 5.22599 12.2423 5.79901 12.3947C7.27679 12.7855 8.2381 13.2271 8.74325 13.739C9.41806 14.4307 10.0099 16.0408 10.5 18.5341C10.9901 16.0447 11.5819 14.4347 12.2567 13.739C12.7619 13.2271 13.7232 12.7855 15.201 12.3947C15.774 12.2423 16.3772 12.1094 16.9502 12Z" fill="#282828"/>
</svg>

<svg xmlns="http://www.w3.org/2000/svg" width="24" height="24" fill="none" viewBox="0 0 24 24"><path fill="#282828" d="M21.778 4.175h.001c.132.02.221.15.221.325s-.089.305-.222.325c-1.214.169-2.085.424-2.328.687-.106.114-.38.562-.632 2.242-.02.149-.146.246-.318.246s-.297-.096-.318-.245c-.251-1.68-.525-2.129-.632-2.243-.243-.261-1.114-.518-2.328-.687-.133-.02-.222-.15-.222-.325 0-.178.088-.305.222-.325 1.214-.169 2.085-.424 2.328-.687.106-.114.38-.562.632-2.242.02-.149.146-.246.318-.246s.297.096.318.245c.251 1.68.525 2.129.632 2.243.243.263 1.114.52 2.328.687M22.714 18.082h.002c.17.025.284.193.284.418s-.114.393-.286.418c-1.56.217-2.68.545-2.993.883-.135.147-.487.723-.812 2.883-.027.19-.188.316-.409.316s-.382-.123-.409-.315c-.323-2.16-.675-2.737-.812-2.884-.313-.336-1.433-.666-2.993-.883-.172-.025-.286-.193-.286-.418 0-.229.113-.393.286-.418 1.56-.217 2.68-.545 2.993-.883.135-.147.487-.723.812-2.883.027-.19.188-.316.409-.316s.382.123.409.315c.323 2.16.675 2.737.812 2.884.313.338 1.433.668 2.993.883"/><path fill="#282828" d="M19.397 11.164h.004c.358.05.599.387.599.836 0 .45-.241.786-.603.836-3.295.434-5.659 1.09-6.318 1.767-.287.293-1.03 1.446-1.716 5.764-.056.383-.396.633-.863.633s-.807-.246-.863-.63c-.683-4.321-1.425-5.474-1.716-5.767-.66-.672-3.023-1.333-6.318-1.767C1.241 12.786 1 12.45 1 12c0-.457.238-.786.603-.836 3.295-.434 5.659-1.09 6.318-1.767.287-.293 1.03-1.446 1.716-5.764.056-.383.396-.633.863-.633s.807.246.863.63c.683 4.321 1.425 5.474 1.716 5.767.66.676 3.023 1.337 6.318 1.767M16.95 12a25 25 0 0 1-1.749-.395c-1.478-.39-2.44-.832-2.944-1.344-.675-.692-1.267-2.302-1.757-4.795-.49 2.49-1.082 4.1-1.757 4.795-.505.512-1.466.954-2.944 1.344-.573.153-1.176.282-1.75.395.578.11 1.177.242 1.75.395 1.478.39 2.44.832 2.944 1.344.675.692 1.267 2.302 1.757 4.795.49-2.49 1.082-4.1 1.757-4.795.505-.512 1.466-.953 2.944-1.344a26 26 0 0 1 1.75-.395"/></svg>
